Tejas-Deo/Enhancing-Robotic-Manipulaiton-Harnessing-the-power-of-Multitask-RL-and-Single-RL-in-Metaworld/single-life-rl_MT/exp_local/sawyer_button_press/slrl/11/seed_1/train.csv
actor_logprob,actor_loss,alpha_loss,alpha_value,batch_reward,bc_actor_loss,critic_loss,critic_q1,critic_q2,critic_target_q,disc_s,disc_s_acc,disc_s_stk,disc_s_stk_acc,discriminator_acc,discriminator_loss,episode,episode_length,episode_reward,forward_buffer_size,fps,frame,latest_r,original_reward,step,success_avg,total_time
0.0,0.0,0.0,0.0,0.0,0.0,0.0,0.0,0.0,0.0,0.0,0.0,0.0,0.0,0.9047331262807377,0.7712606523857742,2.0,500.0,361.60974123917356,201000.0,15.503119645476966,1000,0.0,0.0,1000.0,0.0,32.25157403945923
1.020575692567043,-1638.794201171875,0.0,1.0,12.294139644622803,0.0,212502.322625,1592.6331494140625,1593.083801513672,106433.65192578125,0.004466567361028865,0.0,0.0,0.0,0.94977734375,0.6498504164218902,3.0,500.0,310.77599406285975,201500.0,34.11432448081705,1500,0.6251876334547997,7.7041711320877075,1500.0,0.0,46.90817475318909
3.8233974318504336,-1773.4923706054688,0.0,1.0,12.791332845687867,0.0,50390.064265625,1734.451302001953,1734.6152587890624,24950.21950390625,0.0024153152524959295,0.0,0.0,0.0,0.99994140625,0.6003657264709472,4.0,500.0,181.9541919421915,202000.0,34.386714841525794,2000,0.3739001653492451,7.685521475791931,2000.0,0.0,61.44867420196533
3.285048143386841,-1793.7212290039063,0.0,1.0,13.623733320236205,0.0,27305.0314296875,1788.0254506835938,1788.0097182617187,13625.662647460938,0.0017433737389510498,0.0,0.0,0.0,0.9998984375,0.5837600963115692,5.0,500.0,105.29275109270603,202500.0,34.02898387521144,2500,0.2123051356971264,7.687523320198059,2500.0,0.0,76.1420316696167
2.3090234212875367,-1799.4527019042969,0.0,1.0,14.423842985153199,0.0,21525.96719140625,1796.9973894042969,1797.0495263671876,10689.849727539062,0.0020966357244178654,0.0,0.0,0.0,0.99999609375,0.5728249762058258,6.0,500.0,87.67566567190045,203000.0,34.16423739944578,3000,0.1780307824909687,7.6689400358200075,3000.0,0.0,90.77721905708313
1.9799082305431366,-1819.8938403320312,0.0,1.0,15.129219608306885,0.0,18893.039474609373,1815.6074951171875,1815.5119645996094,9335.195856933593,0.00041848728498735,0.0,0.0,0.0,1.0,0.5779836267232895,7.0,500.0,93.94468251628908,203500.0,32.701318944922654,3500,0.18766018918156624,7.641967681884766,3500.0,0.0,106.06712293624878
2.0303404667377474,-1841.3905056152344,0.0,1.0,15.804423763275146,0.0,17678.445935546875,1837.609211669922,1837.5629223632814,8798.524938964843,4.59983721957542e-05,0.0,0.0,0.0,1.0,0.5873996535539627,8.0,500.0,134.67868275318753,204000.0,34.45610923658124,4000,0.26996135732531545,7.62024405670166,4000.0,0.0,120.57833790779114
1.9264576902389527,-1865.113160888672,0.0,1.0,16.37505224609375,0.0,17238.306974609375,1862.0123974609376,1861.995108154297,8578.33744140625,3.6236377615750826e-05,0.0,0.0,0.0,1.0,0.5769440125226974,9.0,500.0,88.61247483877514,204500.0,34.733648825166895,4500,0.17567531859874724,7.61334294128418,4500.0,0.0,134.97360134124756
1.6181438454389572,-1883.0858891601563,0.0,1.0,16.80973003768921,0.0,17145.3327109375,1881.7120341796874,1881.7090920410155,8553.020262207032,3.5953686046923393e-06,0.0,0.0,0.0,1.0,0.5905509114265441,10.0,500.0,276.0012994598135,205000.0,34.649119654796195,5000,0.5431360008120537,7.591136814117432,5000.0,0.0,149.4039831161499
1.2543066499829292,-1902.683173095703,0.0,1.0,17.22849728012085,0.0,16969.46992578125,1901.6092062988282,1901.6162509765625,8450.8890546875,1.0802628156397987e-05,0.0,0.0,0.0,1.0,0.6099236953258514,11.0,500.0,263.9816313633198,205500.0,35.08317312983646,5500,0.539680044606328,7.566200385093689,5500.0,0.0,163.65583038330078
0.861708827495575,-1922.1698610839844,0.0,1.0,17.431447372436523,0.0,16703.252033203124,1921.6312844238282,1921.6226237792969,8341.82990283203,0.00025037728299503217,0.0,0.0,0.0,1.0,0.5640697079896927,12.0,500.0,33.41133842639537,206000.0,32.659825554665204,6000,0.06789566598832607,7.554195105552673,6000.0,0.0,178.9651596546173
0.7341740748435259,-1942.4221538085937,0.0,1.0,17.585625637054445,0.0,17115.227897460936,1941.6807377929688,1941.6692758789063,8504.245218017579,2.9802564584315406e-05,0.0,0.0,0.0,1.0,0.5650459144115448,13.0,500.0,32.92968189037177,206500.0,33.55317147445405,6500,0.06569150285422802,7.537971760749817,6500.0,0.0,193.86688137054443
1.0421771434545517,-1965.880903564453,0.0,1.0,17.817252700805664,0.0,17162.170915039063,1964.0344465332032,1964.0479138183593,8555.041872314454,5.427430860891036e-06,0.0,0.0,0.0,1.0,0.5723525648117065,14.0,500.0,39.824908290102236,207000.0,34.42088498068278,7000,0.07898609633743763,7.508227728843689,7000.0,0.0,208.3929464817047
0.8351799054592848,-1984.6499067382813,0.0,1.0,17.950026107788087,0.0,17593.96465576172,1983.9749291992186,1983.9426958007812,8778.742104248047,2.27574115592688e-06,0.0,0.0,0.0,1.0,0.5833792077302933,15.0,500.0,45.129366649450375,207500.0,35.671184638206185,7500,0.09084508037567139,7.499074091911316,7500.0,0.0,222.40986323356628
0.5139163389247842,-2005.1296547851562,0.0,1.0,17.98168925476074,0.0,17512.48055859375,2004.4127026367187,2004.4128049316407,8754.570679931641,1.5288542729194888e-06,0.0,0.0,0.0,1.0,0.5898834657669068,16.0,500.0,38.59063821672418,208000.0,35.45536246566684,8000,0.07720044755935669,7.4564917287826535,8000.0,0.0,236.5121030807495
0.4159962324377848,-2019.9346394042968,0.0,1.0,17.97052444458008,0.0,17865.389529785156,2019.798434326172,2019.8268857421874,8931.809782226563,1.0639200701234585e-06,0.0,0.0,0.0,1.0,0.596359248995781,17.0,500.0,36.72083242301653,208500.0,36.18433618564404,8500,0.07344852401316165,7.454732959747314,8500.0,0.0,250.330237865448
0.1137983591989614,-2037.6020939941407,0.0,1.0,17.954856052398682,0.0,18342.52907763672,2037.3509372558594,2037.3394582519531,9174.114319824219,8.059226057639534e-07,0.0,0.0,0.0,1.0,0.6016391125917435,18.0,500.0,37.96323026500738,209000.0,34.90427526409112,9000,0.07601676793396472,7.439861162185669,9000.0,0.0,264.6551356315613
-0.12481502012885176,-2049.068366455078,0.0,1.0,17.840358695983888,0.0,18523.105346679688,2049.090846435547,2049.081534423828,9254.734745605469,5.964909879594416e-07,0.0,0.0,0.0,1.0,0.6077905147075653,19.0,500.0,35.41978804940497,209500.0,34.724293446202566,9500,0.07084817461669445,7.384294562339782,9500.0,0.0,279.05427646636963
-0.07209598946209007,-2064.7178103027345,0.0,1.0,17.815399574279784,0.0,18550.551087890624,2064.7773916015626,2064.764215576172,9267.58130822754,4.4655208273525204e-07,0.0,0.0,0.0,1.0,0.6127737157344818,20.0,500.0,40.58896249607266,210000.0,34.7978245253486,10000,0.08087548986077309,7.394094231605529,10000.0,0.0,293.42299151420593
0.0668071916392073,-2077.8682028808594,0.0,1.0,17.747752094268797,0.0,18601.97023046875,2077.70162109375,2077.666603515625,9296.351064575196,4.3059965457814543e-07,0.0,0.0,0.0,1.0,0.6160195994377137,21.0,500.0,46.19984814186138,210500.0,34.78538145883463,10500,0.092408566147089,7.369583571434021,10500.0,0.0,307.79684615135193
-0.14900551697937772,-2088.45991796875,0.0,1.0,17.688637405395507,0.0,18967.973329833985,2088.903786621094,2088.8781330566408,9479.84687097168,3.8521632671972836e-07,0.0,0.0,0.0,1.0,0.6190193207263947,22.0,500.0,40.85548963043607,211000.0,33.746890788139886,11000,0.0818650402724743,7.353995272636413,11000.0,0.0,322.61302733421326
-0.10315363875374896,-2100.9673393554685,0.0,1.0,17.648203433990478,0.0,19233.385931884764,2100.3961284179686,2100.4050725097654,9611.994845947265,2.8920997979753336e-07,0.0,0.0,0.0,1.0,0.6272605959177017,23.0,500.0,36.47090585990961,211500.0,33.57721346779363,11500,0.07297214092314243,7.323403847694397,11500.0,0.0,337.504079580307
0.2016446904402692,-2114.007729980469,0.0,1.0,17.638665996551513,0.0,19679.65553173828,2112.9745646972656,2112.939747314453,9838.282934570312,2.554696051220162e-07,0.0,0.0,0.0,1.0,0.6314925909042358,24.0,500.0,35.92065394230413,212000.0,35.24383538069995,12000,0.0719679799079895,7.317649842262268,12000.0,0.0,351.69095826148987
-0.07930761826015077,-2120.9601079101562,0.0,1.0,17.573986957550048,0.0,19568.13914501953,2120.7016611328127,2120.636173339844,9779.050365478515,2.2933396775215442e-07,0.0,0.0,0.0,1.0,0.6359050701856613,25.0,500.0,35.07317903645744,212500.0,35.16381511646059,12500,0.07010203881561757,7.294207088470459,12500.0,0.0,365.91012144088745
0.06240299846662674,-2135.37655859375,0.0,1.0,17.5572787399292,0.0,20040.49907104492,2134.536440185547,2134.535609863281,10015.531482788087,2.1514242891385037e-07,0.0,0.0,0.0,1.0,0.6398083190917969,26.0,500.0,36.360499151602504,213000.0,35.636779092130745,13000,0.07258938091993332,7.273578095436096,13000.0,0.0,379.94057154655457
0.10770221933641005,-2146.0692709960936,0.0,1.0,17.499777019500733,0.0,20763.70253137207,2144.518148925781,2144.490267578125,10382.675830383301,1.9252733983421421e-07,0.0,0.0,0.0,1.0,0.6425417357683182,27.0,500.0,37.341138108435565,213500.0,36.33257911880842,13500,0.07473432490229606,7.2584024486541745,13500.0,0.0,393.70232629776
-0.09748601110640448,-2153.559704589844,0.0,1.0,17.431801692962647,0.0,20937.67130932617,2153.2756025390627,2153.239242675781,10462.125928222657,1.8510808743599228e-07,0.0,0.0,0.0,1.0,0.6455904158353806,28.0,500.0,35.37970509668824,214000.0,36.53714632467217,14000,0.07095366118848324,7.222069941520691,14000.0,0.0,407.38703083992004
-0.37782784860767427,-2157.142712890625,0.0,1.0,17.340534755706788,0.0,20911.988838134766,2156.3672202148437,2156.3432685546877,10451.881082275391,1.6936511187282122e-07,0.0,0.0,0.0,1.0,0.6484889664649963,29.0,500.0,38.55735584934134,214500.0,36.46985686557813,14500,0.07686564916372299,7.1901829700469975,14500.0,0.0,421.09698462486267
-0.26738212276180273,-2171.2738325195314,0.0,1.0,17.36560747909546,0.0,21001.528150634767,2169.721478027344,2169.6956376953126,10491.074712402344,1.6677445361779064e-07,0.0,0.0,0.0,1.0,0.651241956949234,30.0,500.0,37.578872165713776,215000.0,36.09666091875747,15000,0.07504741725325584,7.199492477416992,15000.0,0.0,434.9486827850342
-0.22062083833513316,-2178.9983408203125,0.0,1.0,17.29064253616333,0.0,21492.544657592774,2177.8008598632814,2177.8108833007814,10738.646309143067,1.515556067062107e-07,0.0,0.0,0.0,1.0,0.6537713490724564,31.0,500.0,39.175345254596984,215500.0,36.33651047125177,15500,0.0786393520385027,7.16081870174408,15500.0,0.0,448.7089490890503
-0.47157774050533774,-2181.487250244141,0.0,1.0,17.26866114616394,0.0,21792.354805541992,2180.696604736328,2180.687046386719,10885.179521911621,1.503942432492522e-07,0.0,0.0,0.0,1.0,0.6568111377954483,32.0,500.0,36.163570951079265,216000.0,36.353751734283705,16000,0.07226028959453105,7.158923293113708,16000.0,0.0,462.4626896381378
-0.2418212706197519,-2190.6748823242187,0.0,1.0,17.219344902038575,0.0,21636.899328613283,2189.2561303710936,2189.2302895507814,10816.466014099122,1.538108667631377e-07,0.0,0.0,0.0,1.0,0.6590655720233918,33.0,500.0,35.76836117027475,216500.0,36.5514458735328,16500,0.0716247838884592,7.129433548927307,16500.0,0.0,476.1420407295227
-0.3106951403162675,-2194.787951171875,0.0,1.0,17.17540662574768,0.0,21804.80276086426,2193.729040527344,2193.725271484375,10897.57526776123,1.5245175146105794e-07,0.0,0.0,0.0,1.0,0.6610055106878281,34.0,500.0,35.21006094180868,217000.0,34.11657878366472,17000,0.07041930283606053,7.109874722480774,17000.0,0.0,490.7976725101471
-0.41061147352616534,-2199.8058471679688,0.0,1.0,17.163501895904542,0.0,22656.33255761719,2199.3860849609373,2199.336971191406,11325.117386291504,1.265140274284704e-07,0.0,0.0,0.0,1.0,0.6601155548095703,35.0,500.0,46.49572684666525,217500.0,34.56420848351207,17500,0.09214521495997906,7.100833936691284,17500.0,0.0,505.26350498199463
-0.4727214436605573,-2203.691573730469,0.0,1.0,17.10166060256958,0.0,22993.712631225586,2203.14916015625,2203.1994150390624,11491.283013061524,1.2421120804617657e-07,0.0,0.0,0.0,1.0,0.6656103726625443,36.0,500.0,46.6638117493843,218000.0,34.89956335772836,18000,0.0938102935999632,7.05658685207367,18000.0,0.0,519.5903332233429
-0.4291353127602488,-2201.272398925781,0.0,1.0,17.04843810081482,0.0,22144.716986694337,2200.8572651367185,2200.834766113281,11063.668840698243,1.3556623027000115e-07,0.0,0.0,0.0,1.0,0.6700215519666671,37.0,500.0,41.82286734239283,218500.0,32.944583482223834,18500,0.08385013335943223,7.032874127388,18500.0,0.0,534.7673363685608
-0.37804631127463656,-2208.8012573242186,0.0,1.0,17.103986469268797,0.0,22713.37742529297,2207.7454833984375,2207.7088911132814,11358.322770996094,1.37615973130778e-07,0.0,0.0,0.0,1.0,0.6701425824165345,38.0,500.0,44.2912755139372,219000.0,32.897070628577765,19000,0.08806183299422264,7.047027248382569,19000.0,0.0,549.9662590026855
-0.3570822696305113,-2211.4434038085938,0.0,1.0,17.082605569839476,0.0,23008.758353759764,2210.45015234375,2210.4448955078124,11509.144104309082,1.5234565405819468e-07,0.0,0.0,0.0,1.0,0.6718998606204987,39.0,500.0,39.37323324938651,219500.0,34.38858687319618,19500,0.07945459282398223,7.02067030620575,19500.0,0.0,564.5059680938721
-0.24766925936538609,-2215.7517758789063,0.0,1.0,17.046737491607665,0.0,23275.401729248046,2214.2774794921875,2214.2444423828124,11639.80193359375,2.7736787055232525e-07,0.0,0.0,0.0,1.0,0.6639714319705963,40.0,500.0,34.04775161247287,220000.0,34.706590287251274,20000,0.06799704300612211,6.9875532217025755,20000.0,0.0,578.9124553203583
-0.33155063091730697,-2223.3276108398436,0.0,1.0,17.05639481163025,0.0,23849.88290563965,2221.2340947265625,2221.2298686523436,11919.506567687988,3.1375040617831473e-07,0.0,0.0,0.0,1.0,0.6504421098232269,41.0,500.0,31.663749593380402,220500.0,33.29421454059195,20500,0.06357770791649818,6.984089744567871,20500.0,0.0,593.9300813674927
-0.17846788591716906,-2229.429623046875,0.0,1.0,17.049509042739867,0.0,23115.842225219727,2227.1303056640627,2227.08605078125,11555.837216308593,3.0863369028111263e-07,0.0,0.0,0.0,1.0,0.6601033511161805,42.0,500.0,33.70182280147603,221000.0,29.974678021038812,21000,0.06734609045088291,6.966641883850098,21000.0,0.0,610.6108295917511
-0.42663335319375617,-2233.6951708984375,0.0,1.0,17.037141927719116,0.0,23855.178561401368,2232.74501171875,2232.7397841796874,11920.658387023926,3.278025009763041e-07,0.0,0.0,0.0,1.0,0.6541049216985703,43.0,500.0,30.346874778365144,221500.0,32.11012770360847,21500,0.060734844096004964,6.9281556644439695,21500.0,0.0,626.1822421550751
-0.3797303693712456,-2237.656219238281,0.0,1.0,17.03040799331665,0.0,23553.305041381835,2236.009552246094,2236.0001635742187,11777.842167297364,3.468568594939825e-07,0.0,0.0,0.0,1.0,0.6583848850727081,44.0,500.0,30.39293888355714,222000.0,34.26464712806195,22000,0.06077622032165527,6.913838793754578,22000.0,0.0,640.7745590209961
-0.4982376002142846,-2235.9431479492187,0.0,1.0,16.996131935119628,0.0,24486.20655554199,2235.543984375,2235.514487792969,12243.931304626465,3.408780578411097e-07,0.0,0.0,0.0,1.0,0.6632854079008103,45.0,500.0,31.02076508736285,222500.0,35.077129636276695,22500,0.06207937394827604,6.898974664688111,22500.0,0.0,655.0288619995117
-0.7132102147638798,-2237.563131347656,0.0,1.0,17.012035120010378,0.0,24235.31876513672,2236.6519067382815,2236.6476459960936,12113.786865478516,3.264082313876315e-07,0.0,0.0,0.0,1.0,0.6631867794990539,46.0,500.0,30.253754824132514,223000.0,34.40491997022787,23000,0.0605181106030941,6.898900890350342,23000.0,0.0,669.5616681575775
-0.8490591760277748,-2233.9451196289065,0.0,1.0,16.982384353637695,0.0,24652.14809362793,2233.4900009765624,2233.4729008789063,12320.024313720704,2.9869486454003893e-07,0.0,0.0,0.0,1.0,0.6728030903339386,47.0,500.0,33.163672005311206,223500.0,32.684274124911205,23500,0.06608097455650568,6.857043808937073,23500.0,0.0,684.8595464229584
-0.5725403562933207,-2239.1778349609376,0.0,1.0,17.007372743606567,0.0,24586.147975097658,2238.4128234863283,2238.378281738281,12289.640046691895,2.822645960804948e-07,0.0,0.0,0.0,1.0,0.6737581411600113,48.0,500.0,33.53125022751105,224000.0,32.78498210846684,24000,0.06655873967707157,6.841217713356018,24000.0,0.0,700.110433101654
-0.7353533771336078,-2237.7146723632814,0.0,1.0,17.002930568695067,0.0,24836.440935302733,2237.198402832031,2237.2160454101563,12424.542447540283,2.7533484089303785e-07,0.0,0.0,0.0,1.0,0.6743584305047989,49.0,500.0,32.32458619911608,224500.0,33.744010711313706,24500,0.0653789519071579,6.819593598365784,24500.0,0.0,714.9278793334961
-0.6252214135155082,-2244.011751953125,0.0,1.0,17.060307622909544,0.0,25605.468179138184,2242.5213154296875,2242.509369140625,12796.540519012451,2.608207514924743e-07,0.0,0.0,0.0,1.0,0.6733937002420426,50.0,500.0,29.800652491017956,225000.0,34.937116166254434,25000,0.05962562610954046,6.819772168159485,25000.0,0.0,729.239307641983
-0.5491678415760398,-2239.170068359375,0.0,1.0,17.048874448776246,0.0,25509.663583618163,2237.7855888671875,2237.767802734375,12751.8825022583,2.128239017622491e-07,0.0,0.0,0.0,1.0,0.6832269877195358,51.0,500.0,33.62386607919002,225500.0,30.23723028474702,25500,0.06724156828969717,6.775081744194031,25500.0,0.0,745.7752153873444
-0.6438048086762428,-2237.4689931640623,0.0,1.0,17.12722988319397,0.0,25208.388861083986,2235.8667197265627,2235.8625244140626,12604.025181884766,2.119627103240873e-07,0.0,0.0,0.0,1.0,0.6831393339633942,52.0,500.0,31.696143067851153,226000.0,31.477333422189943,26000,0.06321656221151352,6.764812041282654,26000.0,0.0,761.659663438797
-0.4156145322844386,-2250.3627348632813,0.0,1.0,17.30467712020874,0.0,26050.31766723633,2248.6469013671876,2248.6062138671873,13022.777427337647,1.7855474956718355e-07,0.0,0.0,0.0,1.0,0.6972355098724365,53.0,500.0,36.240272615166845,226500.0,33.78707955856812,26500,0.07244048812985421,6.754913485527038,26500.0,0.0,776.4582209587097
-0.40647271406743674,-2252.528066894531,0.0,1.0,17.431658098220826,0.0,25379.01912890625,2250.868716308594,2250.8590107421874,12685.67156439209,1.580403533836261e-07,0.0,0.0,0.0,1.0,0.69847574031353,54.0,500.0,41.88850451523293,227000.0,33.0047004289041,27000,0.08339171701669693,6.7369895944595335,27000.0,0.0,791.6075792312622
-0.6590773802548647,-2256.4734528808594,0.0,1.0,17.58717229270935,0.0,26680.17205102539,2255.397469482422,2255.391313232422,13337.360567565918,1.3450742507359338e-07,0.0,0.0,0.0,1.0,0.7018982284069061,55.0,500.0,36.171918184297326,227500.0,34.33994871159203,27500,0.07257740524411202,6.711330974578858,27500.0,0.0,806.1678822040558
-0.39897634166292845,-2257.0225148925783,0.0,1.0,17.688548658370973,0.0,26400.00948803711,2255.316191894531,2255.322090576172,13196.7988465271,1.1655706947522049e-07,0.0,0.0,0.0,1.0,0.6959450808763504,56.0,500.0,37.85459524226519,228000.0,33.58240802650092,28000,0.07557831867039204,6.6731957263946535,28000.0,0.0,821.0566310882568
-0.42852709658443927,-2259.226645996094,0.0,1.0,17.823655849456788,0.0,26359.491918395997,2257.915041503906,2257.8919169921874,13178.817723602295,1.0384700260601676e-07,0.0,0.0,0.0,1.0,0.6948196424245834,57.0,500.0,46.85192924185881,228500.0,33.278277670389805,28500,0.0933679493367672,6.655752594947815,28500.0,0.0,836.0814487934113
-0.35592305672168734,-2264.378012207031,0.0,1.0,17.998365612030028,0.0,26813.856425354003,2262.7048618164063,2262.677389160156,13402.865253692627,1.0205040963739975e-07,0.0,0.0,0.0,1.0,0.6969592804908753,58.0,500.0,37.420855617580486,229000.0,35.90215551909068,29000,0.07548536223173141,6.654521322250366,29000.0,0.0,850.0081906318665
-0.4016249356530607,-2276.4395263671877,0.0,1.0,18.20375136566162,0.0,26857.162174987792,2274.60267578125,2274.56922265625,13427.424912841798,9.462993669728803e-08,0.0,0.0,0.0,1.0,0.6983237515687942,59.0,500.0,39.9059132732399,229500.0,35.190871132768756,29500,0.07907591995596885,6.635886903762818,29500.0,0.0,864.2164218425751
-0.4361477837980492,-2277.2635600585936,0.0,1.0,18.324946292877197,0.0,28967.004775634767,2275.3412807617187,2275.3133588867186,14489.614564025878,8.261196120429303e-08,0.0,0.0,0.0,1.0,0.6984044229984283,60.0,500.0,52.52442349058129,230000.0,34.66061126705878,30000,0.10574000564217567,6.604231026649475,30000.0,0.0,878.6420202255249
-0.7018900840580463,-2284.415576660156,0.0,1.0,18.56106995391846,0.0,27755.39434362793,2283.438623046875,2283.4305776367187,13880.299740722656,8.243007208363906e-08,0.0,0.0,0.0,1.0,0.6980296018123626,61.0,500.0,35.244652893156555,230500.0,34.892102537877896,30500,0.07043318074941635,6.617910513877868,30500.0,0.0,892.9719116687775
-0.6416956013999879,-2292.1031538085936,0.0,1.0,18.72949833679199,0.0,28335.1973560791,2290.5243623046877,2290.4696547851563,14161.497481536866,7.642930684426119e-08,0.0,0.0,0.0,1.0,0.6977152103185653,62.0,500.0,34.919019734960784,231000.0,34.8857399328,31000,0.06990462730824948,6.582719505310059,31000.0,0.0,907.3044171333313
-0.40852316944859923,-2299.5015170898437,0.0,1.0,18.91392762374878,0.0,27611.22515673828,2298.3884067382814,2298.3998413085938,13795.796955078125,7.137762568021344e-08,0.0,0.0,0.0,1.0,0.6986959712505341,63.0,500.0,35.24394749041447,231500.0,35.57106675613348,31500,0.0704727548956871,6.5520172100067136,31500.0,0.0,921.3607861995697
-0.5545604862384498,-2307.616807128906,0.0,1.0,19.14247184753418,0.0,29002.233136779785,2305.74574609375,2305.7436396484377,14501.546043579101,6.718359598067991e-08,0.0,0.0,0.0,1.0,0.7025817183256149,64.0,500.0,37.56658530088047,232000.0,33.28612823137938,32000,0.07510259504616261,6.557384552955628,32000.0,0.0,936.3820598125458
-0.660717333059758,-2315.565882324219,0.0,1.0,19.384009761810304,0.0,29776.737184204103,2314.3881025390624,2314.3495,14880.76976486206,6.09098423751675e-08,0.0,0.0,0.0,1.0,0.7010630910396576,65.0,500.0,37.3301892153802,232500.0,32.97556572896742,32500,0.07466100281476974,6.553419902801513,32500.0,0.0,951.5448038578033
-0.5997836889773607,-2324.1577722167967,0.0,1.0,19.6725749206543,0.0,29842.935169128417,2322.408671875,2322.422135498047,14917.379753356934,5.728713561836685e-08,0.0,0.0,0.0,1.0,0.7016907105445862,66.0,500.0,36.304366441818935,233000.0,31.550787384078067,33000,0.0725794848203659,6.534852708816528,33000.0,0.0,967.3922700881958
-0.6654736260399222,-2339.2393569335936,0.0,1.0,21.093103439331056,0.0,29932.75142755127,2337.6419194335936,2337.6250512695315,14957.024967285157,5.1595623276057265e-08,0.0,0.0,0.0,1.0,0.7010360602140426,67.0,500.0,34.787490385987375,233500.0,30.12442972784457,33500,0.06960963724553584,6.493178169250489,33500.0,0.0,983.990097284317
-0.6821283531785012,-2366.412896972656,0.0,1.0,22.78905136871338,0.0,30004.27699987793,2366.0969736328125,2366.069556640625,14998.066778259277,4.64619296351998e-08,0.0,0.0,0.0,1.0,0.7022233185768127,68.0,500.0,36.394476813646456,234000.0,33.616456244292266,34000,0.07287470372021199,6.505947816848755,34000.0,0.0,998.8637661933899
-0.33365370470676137,-2393.1018095703125,0.0,1.0,24.00855361557007,0.0,32225.824356933594,2390.8209443359374,2390.7811728515626,16113.874134887696,4.224967805299684e-08,0.0,0.0,0.0,1.0,0.7026700109243393,69.0,500.0,36.43706879419997,234500.0,32.592606959722126,34500,0.07279259184002876,6.494221846580506,34500.0,0.0,1014.2046694755554
0.01482697235487285,-2429.2682045898437,0.0,1.0,24.06738708114624,0.0,32816.46598535156,2425.997483886719,2425.990488769531,16408.127284210204,3.8727643293157147e-08,0.0,0.0,0.0,1.0,0.7042935853004455,70.0,500.0,38.49106400808344,235000.0,29.473717526291228,35000,0.07697681403160095,6.47133284664154,35000.0,0.0,1031.1689381599426
-0.06874141901312396,-2452.010500488281,0.0,1.0,23.943500812530516,0.0,33371.63136755371,2449.584840332031,2449.522795410156,16680.150179046632,3.571263778567868e-08,0.0,0.0,0.0,1.0,0.7041076556444168,71.0,500.0,35.20701898156133,235500.0,34.245891060367,35500,0.07041994428634643,6.446264054298401,35500.0,0.0,1045.7692375183105
-0.36004396907193587,-2483.0584213867187,0.0,1.0,23.954477348327636,0.0,34853.32140148926,2481.3222319335937,2481.319408203125,17419.994432373045,3.2278452128053916e-08,0.0,0.0,0.0,1.0,0.7048403486013413,72.0,500.0,36.45257849906417,236000.0,31.522117370387388,36000,0.07266079698503017,6.448405156135559,36000.0,0.0,1061.631115436554
-0.25581178731611,-2503.0720634765626,0.0,1.0,23.8567214012146,0.0,36820.88272619629,2500.9840146484376,2500.9885053710937,18401.86123348999,2.9556081731385576e-08,0.0,0.0,0.0,1.0,0.7069088432788849,73.0,500.0,40.506176728373276,236500.0,32.74704751798728,36500,0.08126476247608662,6.417052051544189,36500.0,0.0,1076.8996691703796
-0.4093893364702817,-2523.289487792969,0.0,1.0,23.773860027313233,0.0,34393.804053588865,2522.089252441406,2522.046884277344,17200.583746398926,2.659993510434333e-08,0.0,0.0,0.0,1.0,0.7051889255046845,74.0,500.0,36.52628022982974,237000.0,32.487796310177444,37000,0.07308137315511704,6.403267326354981,37000.0,0.0,1092.2900650501251
-0.46542299288883804,-2556.623116699219,0.0,1.0,23.81448823928833,0.0,37106.59271728516,2555.173474121094,2555.087598144531,18550.77666522217,2.3302928912727338e-08,0.0,0.0,0.0,1.0,0.7059187520742416,75.0,500.0,36.85973403263936,237500.0,30.869285250176024,37500,0.0736578168272972,6.413746217727661,37500.0,0.0,1108.4873967170715
-0.23673941174498758,-2572.345951171875,0.0,1.0,23.741548851013185,0.0,37301.57733862305,2570.826181152344,2570.7672163085936,18639.088055725097,2.1295497532491937e-08,0.0,0.0,0.0,1.0,0.7068399139642716,76.0,500.0,36.773301582101986,238000.0,31.903360118956073,38000,0.07327412916719914,6.388083979606629,38000.0,0.0,1124.159728527069
-0.43166033597337083,-2583.133904296875,0.0,1.0,23.620201816558836,0.0,39509.91179071045,2582.3204985351563,2582.3015615234376,19755.980299743653,1.846804710936567e-08,0.0,0.0,0.0,1.0,0.7059997060298919,77.0,500.0,37.24079389773411,238500.0,30.70501721098651,38500,0.07486081935465336,6.36384827041626,38500.0,0.0,1140.4437139034271
-0.611867002889514,-2596.354739746094,0.0,1.0,23.551075981140137,0.0,39198.535094482424,2595.4189067382813,2595.423224609375,19596.834379699707,1.6431303880182214e-08,0.0,0.0,0.0,1.0,0.7060917328596115,78.0,500.0,34.639077482831446,239000.0,32.47973775991761,39000,0.06927190877497197,6.33554665184021,39000.0,0.0,1155.837929725647
-0.6984321583509445,-2611.9979814453127,0.0,1.0,23.52176523208618,0.0,41092.657685424805,2612.0399409179686,2612.0153803710937,20537.53046307373,1.5196329815836408e-08,0.0,0.0,0.0,1.0,0.7062199810743331,79.0,500.0,35.30628055663627,239500.0,33.4509412104755,39500,0.07061369769275189,6.332814451217652,39500.0,0.0,1170.785193681717
-0.7392842533439398,-2629.392264160156,0.0,1.0,23.466687850952148,0.0,40723.845193359375,2628.8442509765623,2628.8269916992185,20363.18872973633,1.4278363996922394e-08,0.0,0.0,0.0,1.0,0.7066387876272201,80.0,500.0,35.50080028219046,240000.0,32.761372476727246,40000,0.0710063227713108,6.322146662712097,40000.0,0.0,1186.0470712184906
-0.6524392174482345,-2639.954309082031,0.0,1.0,23.34651686859131,0.0,40629.807152954105,2638.529273925781,2638.5019926757814,20314.759294311523,1.3357693161353268e-08,0.0,0.0,0.0,1.0,0.706697097659111,81.0,500.0,34.70620453209577,240500.0,28.063990628350297,40500,0.06933410532772541,6.280911824226379,40500.0,0.0,1203.8634979724884
-0.40405251390899505,-2654.6916103515623,0.0,1.0,23.30040947341919,0.0,39834.573651489256,2653.02446484375,2653.009682128906,19910.250967559816,1.2488684665967754e-08,0.0,0.0,0.0,1.0,0.7055770423412323,82.0,500.0,34.63548441747223,241000.0,28.893053699889666,41000,0.06925261613726616,6.275127243995667,41000.0,0.0,1221.168702363968
-0.6524428204111755,-2661.5807768554687,0.0,1.0,23.217542991638183,0.0,42498.442701660155,2661.6972099609375,2661.648136230469,21247.53469052124,1.176488459009306e-08,0.0,0.0,0.0,1.0,0.708900481581688,83.0,500.0,37.45744196612166,241500.0,33.22851450167424,41500,0.07492199744284153,6.272580695152283,41500.0,0.0,1236.2160196304321
-0.4022451010397635,-2686.250740234375,0.0,1.0,23.20938943862915,0.0,42190.1131842041,2684.59795703125,2684.6070932617185,21095.48228500366,1.1183824849325675e-08,0.0,0.0,0.0,1.0,0.7085143240690231,84.0,500.0,37.88067058472761,242000.0,35.158195887939286,42000,0.07527151623368264,6.252225790023804,42000.0,0.0,1250.4374563694
-0.5770906738843768,-2695.7755424804686,0.0,1.0,23.130102558135988,0.0,43543.19169628906,2694.6995747070314,2694.6547958984374,21757.017841796875,1.0384897956683404e-08,0.0,0.0,0.0,1.0,0.7092666943073273,85.0,500.0,39.5528258981811,242500.0,34.82247891943966,42500,0.07962756705284119,6.234299347877503,42500.0,0.0,1264.7959990501404
-0.5345873157531023,-2707.9978637695312,0.0,1.0,23.07061601638794,0.0,43303.704983398435,2706.5851840820314,2706.5244350585936,21654.695885009765,9.825584804445953e-09,0.0,0.0,0.0,1.0,0.7065788078308105,86.0,500.0,34.94818941519956,243000.0,35.27700712925741,43000,0.06993777903914451,6.207654857635498,43000.0,0.0,1278.9695389270782
-0.6594410243034363,-2711.15356640625,0.0,1.0,22.95284350204468,0.0,44244.26818334961,2709.7389077148437,2709.786609375,22117.455699768067,9.21647276719284e-09,0.0,0.0,0.0,1.0,0.7076370232105255,87.0,500.0,35.79857611399797,243500.0,34.757747440899784,43500,0.07151875877380372,6.208375609397888,43500.0,0.0,1293.354822397232
-0.4543425745127897,-2720.086674316406,0.0,1.0,22.87185925292969,0.0,44255.62675476074,2718.09344921875,2718.0608271484375,22126.361443237303,8.60717580941639e-09,0.0,0.0,0.0,1.0,0.7062824194431305,88.0,500.0,35.12974517578708,244000.0,35.17271865560124,44000,0.0703386097997427,6.172752998352051,44000.0,0.0,1307.570386648178
-0.7089711820483208,-2722.6551684570313,0.0,1.0,22.75332311630249,0.0,47452.987573242186,2722.088693359375,2722.0696689453125,23720.89312713623,7.750621860758144e-09,0.0,0.0,0.0,1.0,0.7141810050010681,89.0,500.0,40.785737634518334,244500.0,34.852390797109635,44500,0.08158602932095528,6.14857763004303,44500.0,0.0,1321.916606426239
-0.38085391658451406,-2737.622947265625,0.0,1.0,22.770263172149658,0.0,47212.63191870117,2734.9821787109377,2734.986451171875,23604.244941345216,7.668467087107445e-09,0.0,0.0,0.0,1.0,0.7071544382572174,90.0,500.0,35.922855811969974,245000.0,35.167482849758194,45000,0.07184382133185864,6.141932123184204,45000.0,0.0,1336.134287595749
-0.14136164340632967,-2748.6181752929688,0.0,1.0,22.675859966278075,0.0,46749.88832543945,2746.023912109375,2745.9605908203125,23378.023575805662,7.2221607192446415e-09,0.0,0.0,0.0,1.0,0.7070682768821717,91.0,500.0,34.81428528457404,245500.0,34.91012102729727,45500,0.06943244437873364,6.102748501777649,45500.0,0.0,1350.4567828178406
-0.4282802736796439,-2754.9404638671876,0.0,1.0,22.616397163391113,0.0,46753.16315386963,2753.324444824219,2753.302922363281,23376.93042919922,6.701633881611713e-09,0.0,0.0,0.0,1.0,0.7074885373115539,92.0,500.0,35.57461165548298,246000.0,32.638588506549475,46000,0.07116634672880173,6.097037977218628,46000.0,0.0,1365.7760741710663
-0.5557281641997397,-2758.214169921875,0.0,1.0,22.556987663269044,0.0,48146.782506347656,2757.1321274414063,2757.1146083984377,24074.625192810057,6.17599265417823e-09,0.0,0.0,0.0,1.0,0.7088041064739228,93.0,500.0,36.789165312747734,246500.0,35.44806238825986,46500,0.07361421383917331,6.08154598903656,46500.0,0.0,1379.8812186717987
-0.29099161219736563,-2751.409466796875,0.0,1.0,22.356364440917968,0.0,49514.440613037106,2749.0212607421877,2748.9780224609376,24758.13772729492,6.012464172755472e-09,0.0,0.0,0.0,1.0,0.7093686710596084,94.0,500.0,37.15359110934059,247000.0,34.49414239969096,47000,0.07435982689261436,6.041086939811707,47000.0,0.0,1394.376434803009
-0.4466384844444692,-2762.830140625,0.0,1.0,22.33855068588257,0.0,47591.729415893555,2761.0370043945313,2761.0425327148437,23801.3635513916,5.812875556898689e-09,0.0,0.0,0.0,1.0,0.708117060661316,95.0,500.0,36.56499697435929,247500.0,35.21759444923616,47500,0.0732254900187254,6.017372994422913,47500.0,0.0,1408.5738849639893
-0.4463377640247345,-2759.6228540039065,0.0,1.0,22.22772771835327,0.0,49595.93140856933,2757.8689379882812,2757.8733696289064,24797.28068170166,5.709308148027503e-09,0.0,0.0,0.0,1.0,0.7061301381587982,96.0,500.0,34.934290649395535,248000.0,32.13561232323208,48000,0.06978545814752579,5.998262709617615,48000.0,0.0,1424.1329488754272
-0.5461166449412703,-2775.0680737304688,0.0,1.0,22.215853691101074,0.0,49100.597161010744,2772.5576762695314,2772.517475097656,24543.183810943603,5.43632118255033e-09,0.0,0.0,0.0,1.0,0.7116731786727906,97.0,500.0,41.73376849337047,248500.0,35.27673000979636,48500,0.0827971952110529,5.990749256134033,48500.0,0.0,1438.306599855423
-0.4183096677936555,-2769.4197314453127,0.0,1.0,22.098039764404298,0.0,49466.514791625974,2767.318904296875,2767.317947753906,24726.30378250122,5.096420127692624e-09,0.0,0.0,0.0,1.0,0.7158372985124588,98.0,500.0,44.56766335396169,249000.0,35.24296236280735,49000,0.08980915680527687,5.973923209190368,49000.0,0.0,1452.4938309192657
-0.7183492275327444,-2784.0066220703125,0.0,1.0,22.14645086669922,0.0,50357.94317431641,2782.612267578125,2782.627352050781,25184.113417236327,5.082833957281707e-09,0.0,0.0,0.0,1.0,0.7059396600723267,99.0,500.0,35.469003785753046,249500.0,35.28991610645111,49500,0.07102696603536605,5.988119417190552,49500.0,0.0,1466.662185907364
-0.6868649783059955,-2770.725444824219,0.0,1.0,21.971897029876708,0.0,50631.910755249024,2769.685167480469,2769.6291630859373,25319.578685546876,5.13338180496703e-09,0.0,0.0,0.0,1.0,0.7073293763399124,100.0,500.0,35.73960263789112,250000.0,35.0117685775307,50000,0.07142083358764649,5.941988143920899,50000.0,0.0,1480.9430994987488
-0.49354978558421136,-2778.3820727539064,0.0,1.0,21.950951992034913,0.0,50526.59281188965,2776.582939453125,2776.589960449219,25252.01279614258,4.852440996572227e-09,0.0,0.0,0.0,1.0,0.7067531681060791,101.0,500.0,34.738436543274474,250500.0,35.20434591247155,50500,0.06951412561535836,5.93378024482727,50500.0,0.0,1495.1458926200867
-0.5500701112858951,-2779.877255859375,0.0,1.0,21.894057510375976,0.0,51283.81041790771,2778.6667021484377,2778.6565390625,25631.45796154785,4.822033486284738e-09,0.0,0.0,0.0,1.0,0.7073701703548432,102.0,500.0,36.38658637371984,251000.0,35.13306929431139,51000,0.07271260325610637,5.936519271850586,51000.0,0.0,1509.3775036334991
-0.4601399740260094,-2779.415518066406,0.0,1.0,21.820161430358887,0.0,53688.34220690918,2777.245484863281,2777.264955566406,26849.791425720214,4.541808385383206e-09,0.0,0.0,0.0,1.0,0.7080049668550491,103.0,500.0,37.08028851601747,251500.0,35.20302042516862,51500,0.07416086305677891,5.907995807647705,51500.0,0.0,1523.580830335617
-0.42477586211857854,-2772.436883300781,0.0,1.0,21.686606498718263,0.0,52381.078740356446,2771.315730957031,2771.324720703125,26172.06859625244,4.4725438934634095e-09,0.0,0.0,0.0,1.0,0.7114345092773438,104.0,500.0,40.16061727143461,252000.0,35.31241510353904,52000,0.08027186630666255,5.859300995826721,52000.0,0.0,1537.7401576042175
-0.5098634240850807,-2772.2177548828126,0.0,1.0,21.665888904571535,0.0,53954.60702600098,2770.9839604492186,2770.935431152344,26970.455760192872,4.5297410764533196e-09,0.0,0.0,0.0,1.0,0.7077551864385605,105.0,500.0,36.26704294150021,252500.0,35.22078303511145,52500,0.07258799649775029,5.866435094833374,52500.0,0.0,1551.936322927475
-0.19440785676817177,-2761.0989770507813,0.0,1.0,21.491596473693846,0.0,50135.76132824707,2758.7063427734374,2758.6885283203123,25071.465241394042,4.311504764764607e-09,0.0,0.0,0.0,1.0,0.7121582636833191,106.0,500.0,44.23804821599531,253000.0,33.91592749077087,53000,0.08832784980535507,5.807670234680176,53000.0,0.0,1566.678659915924
-0.3872602109787986,-2771.586602050781,0.0,1.0,21.50531494140625,0.0,52758.220622192384,2770.1625727539063,2770.137407714844,26369.60504928589,4.100758701941487e-09,0.0,0.0,0.0,1.0,0.71464495408535,107.0,500.0,42.48439837540667,253500.0,34.229634264341286,53500,0.08503104056417941,5.817439372062683,53500.0,0.0,1581.2858872413635
-0.32265169031429103,-2764.766232421875,0.0,1.0,21.403334316253662,0.0,51585.81919067383,2762.722228515625,2762.6806049804686,25782.212569335938,4.129681711262378e-09,0.0,0.0,0.0,1.0,0.7078217422962189,108.0,500.0,36.89513318347599,254000.0,34.568720858657095,54000,0.07391247496008874,5.7937364120483394,54000.0,0.0,1595.749831199646
-0.18074387136343284,-2774.68255859375,0.0,1.0,21.370003433227538,0.0,50844.42783984375,2771.331353515625,2771.345738769531,25429.850504150392,4.098597249591052e-09,0.0,0.0,0.0,1.0,0.7060595532655716,109.0,500.0,35.50181496153988,254500.0,34.122211402904384,54500,0.07098034453392028,5.783949457168579,54500.0,0.0,1610.4030447006226
-0.4858284357339144,-2772.880521484375,0.0,1.0,21.305590908050537,0.0,52498.952405273434,2770.712380859375,2770.7541967773436,26253.94408459473,3.990062289904728e-09,0.0,0.0,0.0,1.0,0.7060301722288131,110.0,500.0,34.60393045814833,255000.0,34.174819806889595,55000,0.06922015278041363,5.769690993309021,55000.0,0.0,1625.0337014198303
-0.7818160841315984,-2764.952484375,0.0,1.0,21.178316524505615,0.0,51744.06010614014,2764.383652832031,2764.3626000976565,25868.317145355224,3.8445761769700936e-09,0.0,0.0,0.0,1.0,0.7081707775592804,111.0,500.0,38.15262670087817,255500.0,33.93260738026185,55500,0.07628562837839127,5.731008995056152,55500.0,0.0,1639.7687921524048
-0.5694745296090842,-2751.2723081054687,0.0,1.0,21.085274181365968,0.0,54435.92551123047,2749.781589355469,2749.716962890625,27214.458757568358,3.7871240152753674e-09,0.0,0.0,0.0,1.0,0.7065741871595382,112.0,500.0,36.74714230333761,256000.0,33.07396518480178,56000,0.07356076036393643,5.709104908943177,56000.0,0.0,1654.8864250183105
