Tejas-Deo/Enhancing-Robotic-Manipulaiton-Harnessing-the-power-of-Multitask-RL-and-Single-RL-in-Metaworld/single-life-rl_MT/exp_local/sawyer_window_open/slrl/11/seed_90/train.csv
actor_logprob,actor_loss,alpha_loss,alpha_value,batch_reward,bc_actor_loss,critic_loss,critic_q1,critic_q2,critic_target_q,disc_s,disc_s_acc,disc_s_stk,disc_s_stk_acc,discriminator_acc,discriminator_loss,episode,episode_length,episode_reward,forward_buffer_size,fps,frame,latest_r,original_reward,step,success_avg,total_time
0.0,0.0,0.0,0.0,0.0,0.0,0.0,0.0,0.0,0.0,0.0,0.0,0.0,0.0,0.8914574795081968,0.6527948092486038,2.0,500.0,264.74476496886786,201000.0,13.199088756148114,1000,0.0,0.0,1000.0,0.0,37.88140344619751
0.9367787478696555,-1640.2961079101563,0.0,1.0,12.20902587890625,0.0,209544.05878125,1598.3470581054687,1598.1657683105468,105410.52676171875,0.0035258886197116228,0.0,0.0,0.0,0.9355546875,0.5740789269208908,3.0,500.0,220.8612339245607,201500.0,29.57300049042216,1500,0.4413938853740692,7.720819240570068,1500.0,0.0,54.78871774673462
3.9834268465042113,-1783.4047875976562,0.0,1.0,12.669097721099854,0.0,49442.38561328125,1741.4391821289062,1741.4032238769532,24647.24567578125,0.005608707017730922,0.0,0.0,0.0,0.99912109375,0.632366182088852,4.0,500.0,275.1439685472773,202000.0,31.723908186318603,2000,0.5557937126755714,7.685657315254211,2000.0,0.0,70.54970264434814
3.752605285644531,-1803.7532114257813,0.0,1.0,13.431158546447755,0.0,27997.113955078126,1797.4115766601562,1797.3420122070313,13999.4732578125,0.0005587706827500369,0.0,0.0,0.0,1.0,0.6379575215578079,5.0,500.0,267.64770252035527,202500.0,31.926534771375614,2500,0.537056799530983,7.691745551109314,2500.0,0.0,86.21065783500671
2.3229581804275514,-1802.9641655273438,0.0,1.0,14.064541109085082,0.0,21176.608940429687,1802.2788259277345,1802.34495703125,10583.557301757812,0.00012894581869477405,0.0,0.0,0.0,1.0,0.6360317393541336,6.0,500.0,257.4891123803361,203000.0,32.104436413559064,3000,0.5155345714092254,7.656648921966553,3000.0,0.0,101.78483009338379
2.0368670494556427,-1814.34635546875,0.0,1.0,14.63847225189209,0.0,18989.656446289064,1811.1073229980468,1811.0989494628907,9478.372677246094,4.200513036266784e-05,0.0,0.0,0.0,1.0,0.641534958600998,7.0,500.0,235.05887452531843,203500.0,33.0856783441864,3500,0.4686557329297066,7.639484641075135,3500.0,0.0,116.89711022377014
1.8672255156040192,-1827.383697998047,0.0,1.0,15.172426160812378,0.0,17809.456901367186,1824.6546513671874,1824.6154763183595,8874.17946435547,2.0200867817038672e-05,0.0,0.0,0.0,1.0,0.6471979135274887,8.0,500.0,244.32210340162442,204000.0,32.95877362141415,4000,0.4888257639408112,7.622469889640808,4000.0,0.0,132.06757855415344
1.8006797261238099,-1843.4522937011718,0.0,1.0,15.675445274353027,0.0,17131.907185546876,1840.7483149414063,1840.7205649414063,8548.085680908203,1.793191243086767e-05,0.0,0.0,0.0,1.0,0.6561062358617783,9.0,500.0,275.6047940224483,204500.0,30.147814789736316,4500,0.5506730065345764,7.597231188774109,4500.0,0.0,148.65252900123596
1.3886079313755035,-1856.9500231933594,0.0,1.0,16.168660457611082,0.0,16612.15513720703,1857.1447048339844,1857.1069592285157,8298.369529052734,5.892031696930644e-06,0.0,0.0,0.0,1.0,0.6545016894340515,10.0,500.0,259.6011572779318,205000.0,32.03582962347277,5000,0.5205055596232414,7.599793011665344,5000.0,0.0,164.2600543498993
1.1503096194267273,-1871.5317351074218,0.0,1.0,16.60516174316406,0.0,16353.599270996094,1870.963240234375,1870.9501584472657,8154.896558837891,3.4480195031392213e-06,0.0,0.0,0.0,1.0,0.6579480081796646,11.0,500.0,257.0150364420852,205500.0,31.490060523203443,5500,0.5142214940786362,7.587097255706787,5500.0,0.0,180.1380808353424
0.9093608113527298,-1886.389405517578,0.0,1.0,16.968171188354493,0.0,16558.183850585938,1885.8861882324218,1885.9017397460937,8266.945569946289,2.5633228772221627e-06,0.0,0.0,0.0,1.0,0.6624411715269088,12.0,500.0,261.54142110265764,206000.0,31.174194929394897,6000,0.5231125877499581,7.564535882949829,6000.0,0.0,196.17700672149658
0.881251443862915,-1903.6261264648438,0.0,1.0,17.266909046173097,0.0,16769.372783935545,1903.0247927246094,1903.0030017089844,8390.99224633789,3.3889570293013095e-06,0.0,0.0,0.0,1.0,0.6334330930709838,13.0,500.0,221.70233140215566,206500.0,30.576760864501157,6500,0.44603390944004057,7.5370585126876835,6500.0,0.0,212.5292773246765
0.7411951678097248,-1923.34623046875,0.0,1.0,17.51292797470093,0.0,16742.612629882813,1922.11942578125,1922.1487016601563,8373.836610717774,2.8471427012846107e-06,0.0,0.0,0.0,1.0,0.6419846185445786,14.0,500.0,202.0526848999103,207000.0,28.996281900805364,7000,0.4037712625861168,7.530786801338196,7000.0,0.0,229.77286839485168
0.8190457626283169,-1942.702666015625,0.0,1.0,17.69348918914795,0.0,16800.864107666017,1941.20414453125,1941.1886899414062,8402.32430444336,2.130541320411794e-06,0.0,0.0,0.0,1.0,0.6517493892908096,15.0,500.0,174.31478161693016,207500.0,30.240564931830495,7500,0.34999650168418883,7.503707852363586,7500.0,0.0,246.30695176124573
0.8076729000210762,-1960.33709765625,0.0,1.0,17.806423580169678,0.0,17321.703103515625,1959.7373637695312,1959.7231423339845,8654.725970336915,8.187516208977286e-07,0.0,0.0,0.0,1.0,0.6551414358615876,16.0,500.0,168.56091435589892,208000.0,30.509582500587815,8000,0.3362434457540512,7.480495719909668,8000.0,0.0,262.69524598121643
0.289661282666726,-1976.7146528320313,0.0,1.0,17.89036178970337,0.0,17214.168122802734,1976.9013376464843,1976.9232277832032,8595.279059204102,5.86921398053164e-07,0.0,0.0,0.0,1.0,0.6584942339658737,17.0,500.0,171.1915340371235,208500.0,28.701877645578662,8500,0.3432493961453438,7.4741666107177736,8500.0,0.0,280.11573100090027
0.4458680240323738,-1992.4040102539063,0.0,1.0,17.9064813041687,0.0,17795.310829589846,1990.9003217773438,1990.8687263183594,8886.960669311524,5.920888598325291e-07,0.0,0.0,0.0,1.0,0.6612087550163269,18.0,500.0,166.2747780468256,209000.0,31.472454601348314,9000,0.3327329804897308,7.4446913537979125,9000.0,0.0,296.0026195049286
0.5044701960366219,-2009.9801586914064,0.0,1.0,17.94072370529175,0.0,17757.89767163086,2008.98746484375,2008.9265048828124,8861.842661682129,5.627528576326312e-07,0.0,0.0,0.0,1.0,0.6622528458833694,19.0,500.0,165.6255171359553,209500.0,31.12526862707115,9500,0.33127223259210586,7.414666278839111,9500.0,0.0,312.06673884391785
0.05799126124870963,-2024.846348876953,0.0,1.0,17.98270658493042,0.0,18350.081716308592,2024.7615512695313,2024.7442006835938,9160.555229614258,4.570515276043352e-07,0.0,0.0,0.0,1.0,0.6684671033620835,20.0,500.0,164.01538944229208,210000.0,31.42237225821091,10000,0.32799107497930524,7.4041532068252565,10000.0,0.0,327.9789695739746
0.16317447082290892,-2039.2073576660157,0.0,1.0,17.981713584899904,0.0,18384.557494140627,2038.4736970214844,2038.4735002441407,9188.38602154541,5.347396205479527e-07,0.0,0.0,0.0,1.0,0.6778054015636444,21.0,500.0,166.43171027296592,210500.0,31.7009907179364,10500,0.3318219744563103,7.359939367294311,10500.0,0.0,343.75134778022766
-0.07542132777249208,-2055.5560046386718,0.0,1.0,18.08415475845337,0.0,18964.714396362306,2054.942080810547,2054.889923828125,9470.426114257813,5.567073961287861e-07,0.0,0.0,0.0,1.0,0.6793377298116684,22.0,500.0,170.23758735387477,211000.0,31.864070101829398,11000,0.340486697614193,7.366791995048523,11000.0,0.0,359.4430046081543
0.2900914225131273,-2070.171257324219,0.0,1.0,18.122934226989745,0.0,19227.996278198243,2068.692169921875,2068.668080078125,9602.384380249023,6.050158135622041e-07,0.0,0.0,0.0,1.0,0.683292095541954,23.0,500.0,174.14603387015725,211500.0,32.76153727487351,11500,0.3489617127776146,7.31754958152771,11500.0,0.0,374.7048044204712
0.10286164082271716,-2083.3762160644533,0.0,1.0,18.24445383453369,0.0,19372.346614379883,2083.066482910156,2083.0539084472657,9667.874815856934,6.709414159331572e-07,0.0,0.0,0.0,1.0,0.6822002217769623,24.0,500.0,182.22120029699786,212000.0,31.062703676842137,12000,0.3640728870034218,7.329502343177795,12000.0,0.0,390.80127906799316
-0.009012494176626206,-2096.075130126953,0.0,1.0,18.30558762741089,0.0,20101.529837402344,2095.1491169433593,2095.084833984375,10036.574593811036,6.052153703706154e-07,0.0,0.0,0.0,1.0,0.6761358633041382,25.0,500.0,189.86388318418835,212500.0,28.40048855592019,12500,0.3792119970321655,7.305976848602295,12500.0,0.0,408.4066104888916
-0.13077159845118877,-2108.777893310547,0.0,1.0,18.39809310531616,0.0,20265.028375610353,2108.8551101074218,2108.8695732421875,10132.344831298828,3.4996809739595845e-07,0.0,0.0,0.0,1.0,0.6601663269996643,26.0,500.0,172.92032804179397,213000.0,29.319483162797976,13000,0.34746462225914,7.289705973625183,13000.0,0.0,425.46011877059937
-0.1882884224302834,-2123.6941962890623,0.0,1.0,18.478423133850097,0.0,20736.571380126952,2123.379515380859,2123.4024631347656,10366.916187805176,4.926388919557211e-07,0.0,0.0,0.0,1.0,0.6123850189447403,27.0,500.0,144.3909464131343,213500.0,28.249362990706686,13500,0.2887770391702652,7.243364597320556,13500.0,0.0,443.1596345901489
-0.10773203964158892,-2139.7249116210937,0.0,1.0,18.584496398925783,0.0,21363.920505615235,2138.8812280273437,2138.7972370605466,10663.865257141113,4.921950136917985e-07,0.0,0.0,0.0,1.0,0.5825497132539749,28.0,500.0,158.18207069563394,214000.0,31.230441901359136,14000,0.31553777545690537,7.233144148826599,14000.0,0.0,459.16965651512146
0.18581942343516858,-2157.392698730469,0.0,1.0,18.72335139846802,0.0,21316.933983520506,2156.429023193359,2156.3792895507813,10656.01186956787,4.920643179957552e-07,0.0,0.0,0.0,1.0,0.5821117624044418,29.0,500.0,163.81703212254584,214500.0,29.791515278281665,14500,0.32793579071760176,7.22177872467041,14500.0,0.0,475.9529592990875
0.24462506052579555,-2175.00770703125,0.0,1.0,18.852707607269288,0.0,21691.352181030274,2173.4638422851563,2173.449265625,10838.565262695312,4.606883094879777e-07,0.0,0.0,0.0,1.0,0.5861370944976807,30.0,500.0,159.38265651834334,215000.0,31.072906898746233,15000,0.31871464735269545,7.196883623123169,15000.0,0.0,492.0441496372223
0.1242227958214935,-2190.554863769531,0.0,1.0,19.04465244293213,0.0,21850.66342211914,2190.437172363281,2190.41544140625,10913.233876281738,4.3024357421472816e-07,0.0,0.0,0.0,1.0,0.5900630222558976,31.0,500.0,174.04193966891503,215500.0,30.692031287035952,15500,0.3477498993873596,7.165361424446106,15500.0,0.0,508.33502411842346
-0.17790513866957916,-2208.6174970703123,0.0,1.0,19.325176734924316,0.0,22488.164197387694,2208.1844838867187,2208.117537109375,11231.483368591309,3.886591284754104e-07,0.0,0.0,0.0,1.0,0.5932298474311829,32.0,500.0,175.1016201248987,216000.0,32.25085997982199,16000,0.3497795648574829,7.168101044654846,16000.0,0.0,523.8384885787964
-0.3963557271109894,-2222.1696005859376,0.0,1.0,19.5824870262146,0.0,22709.70622521973,2222.583651855469,2222.5804750976563,11347.621197265626,3.4184662612801733e-07,0.0,0.0,0.0,1.0,0.5959624938964844,33.0,500.0,172.4737321746837,216500.0,32.76918890713504,16500,0.34505770409107206,7.150315896987915,16500.0,0.0,539.0967252254486
-0.5615899168476463,-2239.330962890625,0.0,1.0,20.32211477279663,0.0,22594.33149731445,2239.3681127929685,2239.3419765625,11287.98081829834,3.4036975534945666e-07,0.0,0.0,0.0,1.0,0.6009192636013031,34.0,500.0,173.74343931894137,217000.0,32.971496469955135,17000,0.34777542132139205,7.11884804725647,17000.0,0.0,554.261340379715
-0.06272376192384399,-2263.4701538085938,0.0,1.0,21.221487186431883,0.0,23560.358904785156,2262.1829033203126,2262.169488769531,11760.65289465332,3.059480052343133e-07,0.0,0.0,0.0,1.0,0.6045498208999633,35.0,500.0,173.65006883335192,217500.0,33.01386196769734,17500,0.3473058403134346,7.097017827987671,17500.0,0.0,569.4064950942993
-0.13792553402960767,-2292.0516196289063,0.0,1.0,21.87356811904907,0.0,24263.218919677733,2291.275215332031,2291.2556513671875,12125.673718322754,2.882819292153727e-07,0.0,0.0,0.0,1.0,0.6099384169578552,36.0,500.0,181.74612955980936,218000.0,33.082564531013,18000,0.36383187675476075,7.094737775802613,18000.0,0.0,584.5201983451843
-0.15996603631344625,-2320.879345214844,0.0,1.0,22.756242088317872,0.0,25405.839236816406,2320.379748046875,2320.315829589844,12695.195350830078,2.4046212507755625e-07,0.0,0.0,0.0,1.0,0.6122151217460632,37.0,500.0,168.11718461220946,218500.0,33.443290581277054,18500,0.33573654758930205,7.083943472862243,18500.0,0.0,599.4708821773529
-0.2682213575271307,-2346.574572265625,0.0,1.0,22.8312287940979,0.0,25697.693140502928,2346.0447275390625,2346.031138671875,12842.417280334472,2.337266033123342e-07,0.0,0.0,0.0,1.0,0.6163614813089371,38.0,500.0,177.94464666112904,219000.0,32.983552151622874,19000,0.35517342132329943,7.057970694541931,19000.0,0.0,614.6299543380737
-0.22684792883566116,-2374.036201660156,0.0,1.0,22.93836810684204,0.0,26311.099994262695,2373.335254394531,2373.268900878906,13149.498532409669,2.1665549476779232e-07,0.0,0.0,0.0,1.0,0.6174325672388077,39.0,500.0,174.98881449656145,219500.0,33.262300655573526,19500,0.35053290385007857,7.032571546554565,19500.0,0.0,629.661988735199
0.059507734719954894,-2401.8195942382813,0.0,1.0,22.956596778869628,0.0,26446.910602661133,2400.9569663085936,2400.954710449219,13211.296794006348,2.1066242030087777e-07,0.0,0.0,0.0,1.0,0.6206881922483444,40.0,500.0,182.40711487096772,220000.0,33.68217907421837,20000,0.3645216815471649,7.0056883907318115,20000.0,0.0,644.5066356658936
0.05342987739611999,-2427.6514423828125,0.0,1.0,22.989894451141357,0.0,27195.40544555664,2425.9918579101563,2425.968515625,13599.136494689941,1.9098121700267258e-07,0.0,0.0,0.0,1.0,0.6234122570753098,41.0,500.0,180.6076600727495,220500.0,33.19294016916315,20500,0.3618146453499794,7.007689847946167,20500.0,0.0,659.5700814723969
0.31446244338864926,-2459.4440478515626,0.0,1.0,23.627613613128663,0.0,29085.261201660156,2457.84075,2457.7870776367185,14543.56915588379,1.8818107571405562e-07,0.0,0.0,0.0,1.0,0.6265186541080475,42.0,500.0,180.9550275503153,221000.0,33.21071754591568,21000,0.36131408911943436,7.009464109420777,21000.0,0.0,674.6254637241364
-0.25463283145439347,-2486.2860478515627,0.0,1.0,23.935715030670167,0.0,29441.82902960205,2484.5974580078123,2484.5498559570315,14724.102056396485,1.9890858294502321e-07,0.0,0.0,0.0,1.0,0.6262562770843506,43.0,500.0,197.25267660615913,221500.0,33.486766229110295,21500,0.3938254129290581,6.969131534576416,21500.0,0.0,689.5567367076874
-0.02142885460256366,-2519.122930175781,0.0,1.0,24.0337901763916,0.0,29952.603040893555,2517.6697231445314,2517.616873535156,14967.811035217284,1.9319548232488158e-07,0.0,0.0,0.0,1.0,0.6259617924690246,44.0,500.0,202.0622677869514,222000.0,30.793880352963622,22000,0.40380357259511945,6.958586490631103,22000.0,0.0,705.793731212616
